svg/check.svg

<?xml version="1.0" encoding="UTF-8"?>
<svg xmlns="http://www.w3.org/2000/svg" xmlns:xlink="http://www.w3.org/1999/xlink" width="32" height="32" viewBox="0 0 32 32">
<path fill-rule="nonzero" fill="rgb(0%, 0%, 0%)" fill-opacity="1" d="M 16 1.28125 C 7.882812 1.28125 1.28125 7.882812 1.28125 16 C 1.28125 24.117188 7.882812 30.71875 16 30.71875 C 24.117188 30.71875 30.71875 24.117188 30.71875 16 C 30.71875 7.882812 24.117188 1.28125 16 1.28125 M 22.929688 10.601562 L 15.5625 21.457031 L 9.804688 16.113281 C 9.628906 15.960938 9.550781 15.722656 9.601562 15.496094 C 9.652344 15.269531 9.824219 15.085938 10.046875 15.023438 C 10.269531 14.957031 10.507812 15.015625 10.675781 15.175781 L 15.339844 19.503906 L 21.871094 9.878906 C 22 9.6875 22.222656 9.578125 22.453125 9.59375 C 22.683594 9.609375 22.886719 9.746094 22.984375 9.957031 C 23.085938 10.164062 23.0625 10.414062 22.929688 10.601562 "/>
</svg>

<svg role="img" viewBox="0 0 32 32" height="32" width="32" xmlns="http://www.w3.org/2000/svg"><path d="M16 1.281C7.883 1.281 1.281 7.883 1.281 16c0 8.117 6.602 14.719 14.719 14.719 8.117 0 14.719-6.602 14.719-14.719 0-8.117-6.602-14.719-14.719-14.719m6.93 9.32-7.367 10.856-5.758-5.344a.635.635 0 0 1 .242-1.09.643.643 0 0 1 .629.153l4.664 4.328 6.531-9.625a.65.65 0 0 1 .582-.285c.23.015.434.152.531.363a.637.637 0 0 1-.054.645"/></svg>
